icons/question_circle.svg

<svg width="48" height="48" viewBox="0 0 48 48" fill="none" xmlns="http://www.w3.org/2000/svg">
<path fill-rule="evenodd" clip-rule="evenodd" d="M24 42C33.9411 42 42 33.9411 42 24C42 14.0589 33.9411 6 24 6C14.0589 6 6 14.0589 6 24C6 33.9411 14.0589 42 24 42ZM24 44C35.0457 44 44 35.0457 44 24C44 12.9543 35.0457 4 24 4C12.9543 4 4 12.9543 4 24C4 35.0457 12.9543 44 24 44Z" fill="black"/>
<path d="M31.6631 12.3027C33.6894 13.8676 35 16.2296 35 19.2903C35 22.8107 33.0456 25.2437 30.8102 26.7355C29.2829 27.7547 27.5519 28.395 26 28.7291V30C26 31.1046 25.1046 32 24 32C22.8954 32 22 31.1046 22 30V27C22 25.9444 22.8203 25.0706 23.8738 25.004C25.1758 24.9217 27.0744 24.4196 28.5898 23.4083C30.0544 22.4309 31 21.1102 31 19.2903C31 17.4962 30.2856 16.2929 29.2181 15.4684C28.0852 14.5934 26.4424 14.0721 24.6041 14.0069C22.7734 13.9419 20.9308 14.3379 19.5007 15.0879C18.0704 15.838 17.2151 16.8431 16.9415 17.9496C16.6765 19.0219 15.5923 19.6763 14.52 19.4112C13.4478 19.1462 12.7934 18.062 13.0584 16.9897C13.6849 14.4553 15.5296 12.6538 17.643 11.5455C19.7567 10.4369 22.3015 9.92266 24.7459 10.0094C27.1825 10.0958 29.7023 10.7882 31.6631 12.3027Z" fill="black"/>
<path d="M22 36C22 34.8954 22.8954 34 24 34C25.1045 34 26 34.8954 26 36C26 37.1046 25.1045 38 24 38C22.8954 38 22 37.1046 22 36Z" fill="black"/>
</svg>

<svg
  xmlns="http://www.w3.org/2000/svg"
  width="24"
  height="24"
  viewBox="0 0 24 24"
  fill="none"
  stroke="currentColor"
  stroke-width="2"
  stroke-linecap="round"
  stroke-linejoin="round"
>
  <path
    fill-rule="evenodd"
    d="M24 42c9.941 0 18-8.059 18-18S33.941 6 24 6 6 14.059 6 24s8.059 18 18 18m0 2c11.046 0 20-8.954 20-20S35.046 4 24 4 4 12.954 4 24s8.954 20 20 20"
    clip-rule="evenodd"
  />
  <path d="M31.663 12.303C33.69 13.868 35 16.23 35 19.29c0 3.52-1.954 5.954-4.19 7.445-1.527 1.02-3.258 1.66-4.81 1.994V30a2 2 0 1 1-4 0v-3a2 2 0 0 1 1.874-1.996c1.302-.082 3.2-.584 4.716-1.596C30.054 22.431 31 21.11 31 19.29c0-1.794-.714-2.997-1.782-3.822-1.133-.875-2.776-1.396-4.614-1.461-1.83-.065-3.673.33-5.103 1.08-1.43.751-2.286 1.756-2.56 2.863a2 2 0 1 1-3.883-.96c.627-2.535 2.472-4.336 4.585-5.444 2.114-1.11 4.659-1.623 7.103-1.537 2.437.087 4.956.78 6.917 2.294" />
  <path d="M22 36a2 2 0 1 1 4 0 2 2 0 0 1-4 0" />
</svg>
